assets/old-crown.svg

<svg xmlns="http://www.w3.org/2000/svg" viewBox="0 0 40 40" height="24" width="24">
  <path fill="#b1b4b6" d="M8.9 17.2a2 2 0 0 0 2.5-1c.4-.9-.1-2.1-1-2.5a2 2 0 0 0-2.5 1c-.4 1 0 2.1 1 2.5m-4.3 2.5a2 2 0 0 0 2.5-1c.4-.9-.1-2.1-1-2.5a2 2 0 0 0-2.5 1c-.5 1 0 2.1 1 2.5m-1.3 4.8a2 2 0 0 0 2.5-1 2 2 0 0 0-1-2.5 2 2 0 0 0-2.5 1c-.4 1 0 2.1 1 2.5m10.4-5.8a2 2 0 0 0 2.5-1c.4-.9-.1-2.1-1-2.5a2 2 0 0 0-2.5 1 2 2 0 0 0 1 2.5m17.4-1.5a2 2 0 0 1-2.5-1c-.4-.9.1-2.1 1-2.5a2 2 0 0 1 2.5 1c.5 1 0 2.1-1 2.5m4.3 2.5a2 2 0 0 1-2.5-1c-.4-.9.1-2.1 1-2.5a2 2 0 0 1 2.5 1c.5 1 0 2.1-1 2.5m1.3 4.8a2 2 0 0 1-2.5-1 2 2 0 0 1 1-2.5 2 2 0 0 1 2.5 1c.4 1 0 2.1-1 2.5m-10.4-5.8a2 2 0 0 1-2.5-1c-.4-.9.1-2.1 1-2.5a2 2 0 0 1 2.5 1 2 2 0 0 1-1 2.5M21 13.8l2.4 1.3v-3.6l-2.4.8-.2-.2 1-3h-3.4l1 3-.2.2c-.1.1-2.4-.7-2.4-.7v3.5l2.4-1.3c-.1.1 0 .2.1.3l-1.4 4.2-.1.7c0 1.1.8 2.1 1.9 2.2h.6a2.2 2.2 0 0 0 1.9-2.2l-.1-.7-1.4-4.2.3-.3m-1 20.3c4.6 0 8.9.3 12.8.9a24 24 0 0 1 3.8-9.1L34 25c.3 1.3.3 1.9 0 2.8-.4-.4-.8-1.2-1.1-2.4l-1.2 4.2c.8-.5 1.4-.9 2-.9-1.2 2.6-2.7 3.2-3.6 3a1.8 1.8 0 0 1-1.5-2.2c.3-1.3 1.6-1.6 2.2-.1C32 27 30 26.3 28.7 27c1.9-1.9 2.2-3.6.6-5.7-2.2 1.7-2.2 3.3-1.2 5.6-1.3-1.5-3.3-.7-2.5 1.7.9-1.4 2.1-.5 2 .8-.2 1.2-1.7 2.1-3.7 2-2.8-.2-3-2.2-3-3.7.7-.1 1.9.5 3 2l.4-4.4a4 4 0 0 1-3.3 1.4c.4-1.2 2.1-3.1 2.1-3.1h-5.5s1.8 2 2.1 3.1c-1.1 0-2.2-.3-3.3-1.4l.4 4.4c1.1-1.5 2.3-2.1 3-2-.1 1.6-.2 3.5-3 3.7-1.9.2-3.5-.8-3.7-2-.2-1.3 1-2.2 1.9-.8.7-2.4-1.3-3.1-2.6-1.7 1-2.3 1-4-1.2-5.6-1.6 2.1-1.3 3.8.6 5.7-1.3-.7-3.2 0-2.1 2.4.6-1.5 1.9-1.1 2.2.1.2.9-.4 1.9-1.5 2.2-1 .2-2.5-.5-3.7-3 .7 0 1.3.4 2 .9l-1.5-4.2A4.9 4.9 0 0 1 6 27.8c-.3-.8-.2-1.5 0-2.8l-2.6.9c1.5 1.9 2.8 4.5 3.9 9.1 3.8-.5 8.2-.9 12.7-.9"/>
</svg>

<?xml version="1.0" encoding="UTF-8"?>
<svg width="25px" height="25px" viewBox="0 0 40 40" version="1.1" xmlns="http://www.w3.org/2000/svg" xmlns:xlink="http://www.w3.org/1999/xlink">
<path d="M8.9,17.2 C9.9,17.6 11,17.1 11.4,16.2 C11.8,15.3 11.3,14.1 10.4,13.7 C9.4,13.3 8.3,13.8 7.9,14.7 C7.5,15.7 7.9,16.8 8.9,17.2 M4.6,19.7 C5.6,20.1 6.7,19.6 7.1,18.7 C7.5,17.8 7,16.6 6.1,16.2 C5.1,15.8 4,16.3 3.6,17.2 C3.1,18.2 3.6,19.3 4.6,19.7 M3.3,24.5 C4.3,24.9 5.4,24.4 5.8,23.5 C6.2,22.5 5.7,21.4 4.8,21 C3.8,20.6 2.7,21.1 2.3,22 C1.9,23 2.3,24.1 3.3,24.5 M13.7,18.7 C14.7,19.1 15.8,18.6 16.2,17.7 C16.6,16.8 16.1,15.6 15.2,15.2 C14.2,14.8 13.1,15.3 12.7,16.2 C12.3,17.1 12.7,18.3 13.7,18.7 M31.1,17.2 C30.1,17.6 29,17.1 28.6,16.2 C28.2,15.3 28.7,14.1 29.6,13.7 C30.6,13.3 31.7,13.8 32.1,14.7 C32.6,15.7 32.1,16.8 31.1,17.2 M35.4,19.7 C34.4,20.1 33.3,19.6 32.9,18.7 C32.5,17.8 33,16.6 33.9,16.2 C34.9,15.8 36,16.3 36.4,17.2 C36.9,18.2 36.4,19.3 35.4,19.7 M36.7,24.5 C35.7,24.9 34.6,24.4 34.2,23.5 C33.8,22.5 34.3,21.4 35.2,21 C36.2,20.6 37.3,21.1 37.7,22 C38.1,23 37.7,24.1 36.7,24.5 M26.3,18.7 C25.3,19.1 24.2,18.6 23.8,17.7 C23.4,16.8 23.9,15.6 24.8,15.2 C25.8,14.8 26.9,15.3 27.3,16.2 C27.7,17.1 27.3,18.3 26.3,18.7 M21,13.8 L23.4,15.1 L23.4,11.5 L21,12.3 C20.9,12.2 20.9,12.1 20.8,12.1 C20.7,12.1 21.8,9.1 21.8,9.1 L18.4,9.1 L19.4,12.1 C19.3,12.2 19.2,12.2 19.2,12.3 C19.1,12.4 16.8,11.6 16.8,11.6 L16.8,15.1 L19.2,13.8 C19.1,13.9 19.2,14 19.3,14.1 L17.9,18.3 C17.8,18.5 17.8,18.7 17.8,19 C17.8,20.1 18.6,21.1 19.7,21.2 L20.3,21.2 C21.4,21 22.2,20.1 22.2,19 C22.2,18.8 22.2,18.6 22.1,18.3 L20.7,14.1 C20.9,14 21,13.9 21,13.8 M20,34.1 C24.6,34.1 28.9,34.4 32.8,35 C33.9,30.4 35.2,27.8 36.6,25.9 L34,25 C34.3,26.3 34.3,26.9 34,27.8 C33.6,27.4 33.2,26.6 32.9,25.4 L31.7,29.6 C32.5,29.1 33.1,28.7 33.7,28.7 C32.5,31.3 31,31.9 30.1,31.7 C28.9,31.5 28.4,30.4 28.6,29.5 C28.9,28.2 30.2,27.9 30.8,29.4 C32,27 30,26.3 28.7,27 C30.6,25.1 30.9,23.4 29.3,21.3 C27.1,23 27.1,24.6 28.1,26.9 C26.8,25.4 24.8,26.2 25.6,28.6 C26.5,27.2 27.7,28.1 27.6,29.4 C27.4,30.6 25.9,31.5 23.9,31.4 C21.1,31.2 20.9,29.2 20.9,27.7 C21.6,27.6 22.8,28.2 23.9,29.7 L24.3,25.3 C23.2,26.5 22.1,26.7 21,26.7 C21.4,25.5 23.1,23.6 23.1,23.6 L17.6,23.6 C17.6,23.6 19.4,25.6 19.7,26.7 C18.6,26.7 17.5,26.4 16.4,25.3 L16.8,29.7 C17.9,28.2 19.1,27.6 19.8,27.7 C19.7,29.3 19.6,31.2 16.8,31.4 C14.9,31.6 13.3,30.6 13.1,29.4 C12.9,28.1 14.1,27.2 15,28.6 C15.7,26.2 13.7,25.5 12.4,26.9 C13.4,24.6 13.4,22.9 11.2,21.3 C9.6,23.4 9.9,25.1 11.8,27 C10.5,26.3 8.6,27 9.7,29.4 C10.3,27.9 11.6,28.3 11.9,29.5 C12.1,30.4 11.5,31.4 10.4,31.7 C9.4,31.9 7.9,31.2 6.7,28.7 C7.4,28.7 8,29.1 8.7,29.6 L7.2,25.4 C6.9,26.6 6.5,27.3 6,27.8 C5.7,27 5.8,26.3 6,25 L3.4,25.9 C4.9,27.8 6.2,30.4 7.3,35 C11.1,34.5 15.5,34.1 20,34.1" id="Shape" fill="#B1B4B6" fill-rule="nonzero"></path>
</svg>
